!!! OTL: Berkowitz186
!!! Chapter: 1
!!! Section: II
!!! Page: 44
!!! Mode: 
!!! Encoder: DJB
**kern
*staff1
*I"Piano
=1-
*clefC3
*k[f#c#]
*D:
*met(c)
*M4/4
4f#\
8f#\L
8f#\J
8a\L
8g\J
4g\
=2
4e\
8e\L
8e\J
8g\L
8f#\J
4f#\
=3
4r
8d\L
8d\J
8f#\L
8e\J
4e\
=4
8d/L
8c#/
8B/
8A/J
8B\L
8c#\
8d\
8e\J
=5
4f#\
8f#\L
8f#\J
8a\L
8g\J
4g\
=6
4r
8g\L
8g\J
8b\L
8a\J
4a\
=7
!!linebreak:original
4.b\
8g\
4.a\
8f#\
=8
8g\L
8e\
8c#\
8A\J
8d\L
8e\J
4f#\
=9
4.b\
8g\
4.a\
8f#\
=10
8g\L
8e\
8c#\
8A\J
4d\
8d\L
8d\J
=11
8f#\L
8d\
8d\
8d\J
4d\
4r
==
*-
